icons/24x24_info_badged_outline.svg

<svg xmlns="http://www.w3.org/2000/svg" width="24" height="24" viewBox="0 0 24 24">
  <path fill-rule="evenodd" d="M12,2 C17.5228475,2 22,6.4771525 22,12 C22,17.5228475 17.5228475,22 12,22 C6.4771525,22 2,17.5228475 2,12 C2,6.4771525 6.4771525,2 12,2 Z M12,4 C7.581722,4 4,7.581722 4,12 C4,16.418278 7.581722,20 12,20 C16.418278,20 20,16.418278 20,12 C20,7.581722 16.418278,4 12,4 Z M11,18 C10.4477153,18 10,17.5522847 10,17 C10,16.4477153 10.4477153,16 11,16 L10.999,12 L10.8833789,11.9932723 C10.3860402,11.9355072 10,11.5128358 10,11 C10,10.4477153 10.4477153,10 11,10 L12,10 C12.5522847,10 13,10.4477153 13,11 L13,16 C13.5522847,16 14,16.4477153 14,17 C14,17.5522847 13.5522847,18 13,18 L11,18 Z M12,6.22455758 C12.69,6.22455758 13.25,6.78455758 13.25,7.47455758 C13.25,8.16455758 12.69,8.72455758 12,8.72455758 C11.3091667,8.72455758 10.75,8.16455758 10.75,7.47455758 C10.75,6.78455758 11.3091667,6.22455758 12,6.22455758 Z"/>
</svg>

<svg width="24" height="24" fill="none" xmlns="http://www.w3.org/2000/svg"><path fill-rule="evenodd" clip-rule="evenodd" d="M12 2c5.523 0 10 4.477 10 10s-4.477 10-10 10S2 17.523 2 12 6.477 2 12 2Zm0 2a8 8 0 1 0 0 16 8 8 0 0 0 0-16Zm-1 14a1 1 0 1 1 0-2l-.001-4-.116-.007A1 1 0 0 1 11 10h1a1 1 0 0 1 1 1v5a1 1 0 1 1 0 2h-2Zm1-11.775a1.25 1.25 0 1 1 0 2.5 1.25 1.25 0 0 1 0-2.5Z" fill="#000"/></svg>
